X: 13909
T: Foxhunter's Chorus, The
R: reel
M: 4/4
K: Gmajor
|:AB|cBcA GEDC|ECCB, CEGF|DGGF GBdc|(3BAG Bd gdBd|
cBcA GEDC|ECCB, CEGF|DGGF GBdc|(3BAG AB G2:|
|:AB|ccgc acgc|~c2 gc agec|GGdG eGdG|~G2 dG edBG|
ccgc acgc|~c2 gc agec|GABc dcBA|GBdg G2:|

